X:279
T:score78
L:1/8
Q:1/4=96
M:4/4
I:linebreak $
K:F
 z4 z2 z (F | .A).A (AG/F/ c2-) c(c/B/ | .A).A (AG/F/ c2-) c(c/B/ |$ AB/c/ BA G2) z .A | %4
 (cB/A/) .B.c .d c2 .A | (cB/A/) .B.c .d c2 .A |$ .d c2 (B AG/F/ G2 | F2) z2 z2 z2 |] %8
